src/lib/packages/icons/src/assets/filled/more-vertical-square.svg

<svg xmlns="http://www.w3.org/2000/svg" width="24" height="24" fill="none"><path fill="currentColor" d="M17.625 3H6.375C4.125 3 3 4.125 3 6.375v11.25C3 19.875 4.125 21 6.375 21h11.25C19.875 21 21 19.875 21 17.625V6.375C21 4.125 19.875 3 17.625 3Zm-5.604 14.25c-.69 0-1.255-.56-1.255-1.25s.555-1.25 1.245-1.25h.01a1.25 1.25 0 0 1 0 2.5Zm0-4c-.69 0-1.255-.56-1.255-1.25s.555-1.25 1.245-1.25h.01a1.25 1.25 0 0 1 0 2.5Zm0-4c-.69 0-1.255-.56-1.255-1.25s.555-1.25 1.245-1.25h.01a1.25 1.25 0 0 1 0 2.5Z"/></svg>

<svg width="24" height="24" viewBox="0 0 24 24" fill="none" xmlns="http://www.w3.org/2000/svg">
<path d="M17.625 3H6.375C4.125 3 3 4.125 3 6.375V17.625C3 19.875 4.125 21 6.375 21H17.625C19.875 21 21 19.875 21 17.625V6.375C21 4.125 19.875 3 17.625 3ZM12.021 17.25C11.331 17.25 10.766 16.69 10.766 16C10.766 15.31 11.321 14.75 12.011 14.75H12.021C12.711 14.75 13.271 15.31 13.271 16C13.271 16.69 12.711 17.25 12.021 17.25ZM12.021 13.25C11.331 13.25 10.766 12.69 10.766 12C10.766 11.31 11.321 10.75 12.011 10.75H12.021C12.711 10.75 13.271 11.31 13.271 12C13.271 12.69 12.711 13.25 12.021 13.25ZM12.021 9.25C11.331 9.25 10.766 8.69 10.766 8C10.766 7.31 11.321 6.75 12.011 6.75H12.021C12.711 6.75 13.271 7.31 13.271 8C13.271 8.69 12.711 9.25 12.021 9.25Z" fill="currentColor"/>
</svg>
